X:1
T:Meditation from Thais
T:MEDITATION
T:Jules Massenet
T:From Thaïs
C:Jules Massenet
L:1/8
Q:1/4=70
M:4/4
K:Bb
V:1 bass nm="Trombón" snm="Tbn."
V:1
 z8 | z8 |!p! D4- DB, (3F,B,D | G4 (A2 B2) | (B,3 C) (5:4:5(D/E/)D/C/D/ FF, | G,6 A,B, | %6
 D(C E4) !tenuto!=B,!tenuto!C | !tenuto!D!tenuto!E(!tenuto!F!tenuto!G) (G2 G,2) | %8
 A,4 B,2 (C/B,/)A,/B,/ | C4!f!"^rit." ^C4 |!pp!"^a tempo" D4- DB, (3F,B,D | G4 (A2 B2) | %12
 D4- D>B, F,/B,/D/F/ | _A4!<(! (!tenuto!B2 !tenuto!c2)!<)! |!f! d4- d=B (3(GD)=B, | %15
 (3:2:2F2 (E (3C)G,E, (3:2:2D2 C (3G,E,C, | %16
!mp! (3:2:2B,2!<(! (F, (3D,)B,,F,, (G,,2 !tenuto!A,,)!tenuto!B,,!<)! | %17
!f! C,4"^espr." (!tenuto!D,2 !tenuto!E,2) | !tenuto!C,2 (!tenuto!D,2 !tenuto!G,,2) !tenuto!C,2 | %19
!>(! B,,4"^rit." A,,4!>)! |!p! B,,8 |"^a tempo" _A,4- A,!<(!E,(F,C,)!<)! | %22
!>(! E,2 D,4!<(! (3^F,A,C!>)!!<)! | C4- C!tenuto!G,(A,E,) | G,2 F,4!<(! (3(A,C)E!<)! | %25
!f! (E3 F) (!tenuto!G!tenuto!D)(!tenuto!B,!tenuto!G,) | %26
 C>D (5:4:5C/=B,/C/D/E/ (!tenuto!E!tenuto!C)!tenuto!_A,!tenuto!E, | %27
 ^F,4!>(! (!breath!=F,2 E,2)!>)! |!p! F2 (E^C) =C2 (B,_A,) |!<(! B3 (_A F3) (A!<)! | c3) B _A2 FA | %31
!ff! ^c3 =c"^-" e"^-"^c!tenuto!_A!tenuto!=E | %32
 !tenuto!^C!tenuto!=C!tenuto!E!tenuto!^C- !tenuto!C!tenuto!_A,(!tenuto!=E,!tenuto!^C,) | %33
 ^C,7/4=C,/4 C,2- C, !>!^C,2 !>!C, | ^C,7/4=C,/4 C,2- C, !tenuto!^C,2 !tenuto!C, | %35
 ^C,7/4=C,/4 C,2- C, !tenuto!E,2 !tenuto!^F, | %36
 ^F,>E, C,/E,/F,/A,/ !tenuto!C!tenuto!^C!tenuto!D!tenuto!E | %37
 (!tenuto!E!tenuto!D)(!tenuto!^C!tenuto!=C) !tenuto!E!tenuto!F!tenuto!^F!tenuto!G | %38
!p! G3 E- E"^rit" (C2 !fermata!A,) | D4- DB, (3F,B,D | G4 (A2 B2) | %41
 (B,3 C) (5:4:5(D/E/)D/C/D/ FF, | G,6 A,B, | D(C E4) !tenuto!=B,!tenuto!C | %44
 !tenuto!D!tenuto!E(!tenuto!F!tenuto!G) (G2 G,2) | A,4 B,2 (C/B,/)A,/B,/ | C4"^rit" ^C4 | %47
!pp! D4- DB, (3F,B,D | G4 (A2 B2) | D4- D>B, F,/B,/D/F/ | _A4!<(! (!tenuto!B2 !tenuto!c2)!<)! | %51
!ff! d4- d=B (3(GD)=B, | (3:2:2F2 (E (3C)G,E, (3:2:2D2 C (3G,E,C, | %53
!mp! (3:2:2B,2!<(! (F, (3D,B,,F,,) (G,,2 !tenuto!A,,)!tenuto!B,,!<)! | %54
!f! C,4 (!tenuto!D,2 !tenuto!E,2) | !tenuto!C,2 (!tenuto!D,2 !tenuto!G,,2) !tenuto!C,2 | %56
 B,,4!p!"^rit" A,,4 | B,,4- B,,>D, F,/B,/D/F/ | G6 A2 |!f! (d3 B) (FD)B,F, | E,2 ^F,4 A,,2- | %61
 A,,(3A,,/B,,/C,/ B,,4 !tenuto!D,2 | !tenuto!F,2 !tenuto!B,2 !tenuto!D2 !tenuto!F2 | F8- | %64
"^rit" F4!f! B,4 | (C3 D) D4- | D4 C4 | (B,6 (3A,)B,C | B,6 (3A,,B,,C, | B,,8 | B,,,8 |] %71

